!!!COM: Palestrina, Giovanni Perluigi da
!!!OPR: Missa Ascendo ad Patrem
!!!OMD: Credo
!!!OTL: Et in Spiritum
**kern	**kern	**kern	**kern	**kern
*Ibass	*Itenor	*Itenor	*Icalto	*Icant
!Bassus	!Tenor 2	!Tenor 1	!Altus	!Cantus
*clefF4	*clefGv2	*clefGv2	*clefG2	*clefG2
*k[]	*k[]	*k[]	*k[]	*k[]
*C:ion	*C:ion	*C:ion	*C:ion	*C:ion
*M4/2	*M4/2	*M4/2	*M4/2	*M4/2
=117	=117	=117	=117	=117
1C	0r	1c	1g	1ee
2C	.	2g	2cc	2ee
[2c	.	[2g	[2cc	[2ee
=118	=118	=118	=118	=118
4c]	0r	4g]	4cc]	4ee]
4c	.	4g	4cc	4ee
2d	.	2f	2a	2dd
1A	.	1e	1a	1cc#
=119	=119	=119	=119	=119
2d	0r	2f#	2a	2dd
2.G	.	2.g	2.b	2.dd
4G	.	4g	4b	4dd
2G	.	2g	2b	2dd
=120	=120	=120	=120	=120
2.c	0r	2.e	2.g	2.cc
4c	.	4e	4g	4cc
2A	.	2e	2a	2cc
2F	.	2A	2a	2dd
=121	=121	=121	=121	=121
1E	1r	1B	1g#	1ee
1A	2r	2A	2a	2cc#
.	2A	2e	2a	2cc#
=122	=122	=122	=122	=122
0r	2d	2f	2a	2dd
.	1c	1g	1cc	1ee
.	2c	2g	2cc	2ee
=123	=123	=123	=123	=123
0r	2.G	2.g	2.b	2.dd
.	4G	4g	4b	4dd
.	2G	2g	2b	2dd
.	[2c	[2e	[2g	[2cc
=124	=124	=124	=124	=124
0r	2c]	2e]	2g]	2cc]
.	2e	2g	2g	2b
.	1d	1f#	1a	1dd
=125	=125	=125	=125	=125
2r	2c	2g	1cc	2ee
1F	1f	1a	.	1cc
.	.	.	1r	.
2F	2f	2a	.	2cc
=126	=126	=126	=126	=126
1B-	1d	1f	0r	1dd
2G	2e	2g	.	2b-
2F	2f	2c	.	2a
=127	=127	=127	=127	=127
2B-	2f	2.d	1r	2f
2B-	2d	.	.	2g
.	.	4d	.	.
2A	2.c	2e	2r	2a
[2F	.	[2f	[2a	[2cc
.	4B	.	.	.
=128	=128	=128	=128	=128
2F]	2A	2f]	2a]	2cc]
2F	1c	2f	2a	2cc
[1F	.	2f	1a	2.ff
.	2c	4F	.	.
.	.	4G	.	4ee
=129	=129	=129	=129	=129
1F]	2.f	4A	1a	2dd
.	.	4B	.	.
.	.	2c	.	2cc
.	4e	.	.	.
1F	2d	[1A	[1a	[1ff
.	2c	.	.	.
=130	=130	=130	=130	=130
1D	1d	1A]	1a]	1ff]
[1A	2c	2A	[1a	1ee
.	2e	2c	.	.
=131	=131	=131	=131	=131
1A]	2e	2c	1a]	2r
.	2e	2c	.	2cc
1r	2.a	2.f	2r	2cc
.	.	.	2a	2cc
.	4g	4e	.	.
=132	=132	=132	=132	=132
0r	2f	2d	4a	2ff
.	.	.	4a	.
.	2g	2c	1cc	2ee
.	2a	1f	.	2cc
.	4g	.	4b	2dd
.	4f	.	4a	.
=133	=133	=133	=133	=133
0r	2g	0e	2b	0ee
.	1a	.	2cc	.
.	.	.	1b	.
.	2g#	.	.	.
=134	=134	=134	=134	=134
2.F	2a	2.A	2a	0r
.	2f	.	1a	.
4G	.	4B	.	.
2A	2e	2c	.	.
2B-	[2d	2d	2f	.
=135	=135	=135	=135	=135
2G	2d]	2B-	2g	0r
2G	2e	2B-	2g	.
1F	[1f	1c	2.a	.
.	.	.	4g	.
=136	=136	=136	=136	=136
2.B-	1f]	1d	2f	0r
.	.	.	2b-	.
4A	.	.	.	.
2G	2g	2e	2b-	.
2F	2c	[2f	[2a	.
=137	=137	=137	=137	=137
1B-	1d	4f]	4a]	0r
.	.	4e	4g	.
.	.	1d	2g	.
1A	1e	.	1a	.
.	.	2c#	.	.
=138	=138	=138	=138	=138
1D	2f	2d	2r	2r
.	2d	2f	2a	2dd
1r	2G	2g	2b	2dd
.	2g	2c	2cc	2ee
=139	=139	=139	=139	=139
0r	1f	1d	1a	1ff
.	2g	2c	2.cc	2.ee
.	2a	2A	.	.
.	.	.	4b	4dd
=140	=140	=140	=140	=140
0r	2.e	2A	2a	2cc
.	.	2e	2g#	2b
.	4e	.	.	.
.	2e	2A	1a	2a
.	2f#	[2d	.	2a
=141	=141	=141	=141	=141
1G	1.g	2d]	0r	1.b-
.	.	2d	.	.
2G	.	2e	.	.
2A	2c	[2f	.	2a
=142	=142	=142	=142	=142
2B-	2.d	2f]	0r	2f
2B-	.	2d	.	2g
.	4d	.	.	.
2.A	2e	2.c	.	1a
.	2e	.	.	.
4G	.	4B	.	.
=143	=143	=143	=143	=143
2F	2d	2A	1r	0r
2E	2c#	2G	.	.
[1D	[1d	2A	2r	.
.	.	2d	2f	.
=144	=144	=144	=144	=144
1D]	1d]	2.f	2.a	2r
.	.	.	.	2a
.	.	4f	4a	.
1r	1r	2e	2g	2.cc
.	.	[2f	[2a	.
.	.	.	.	4cc
=145	=145	=145	=145	=145
0r	2r	4f]	4a]	2cc
.	.	4e	4g	.
.	2d	4d	4f	2dd
.	.	4c	4e	.
.	2.f	2B-	2d	2dd
.	.	2A	2a	2cc
.	4f	.	.	.
=146	=146	=146	=146	=146
0r	2f	2B-	2d	1b-
.	2g	2G	1e	.
.	2g	[1A	.	[1a
.	2f	.	[2d	.
=147	=147	=147	=147	=147
1r	2e	1A]	2d]	1a]
.	2e	.	2c#	.
[1d	[1f#	1r	2d	2r
.	.	.	[2a	[2dd
=148	=148	=148	=148	=148
2d]	2f#]	0r	2a]	2dd]
2G	2g	.	2b	2dd
2c	2g	.	2cc	2ee
2A	2c	.	2cc	2ff
=149	=149	=149	=149	=149
1.G	2d	0r	1.b	1gg
.	2d	.	.	.
.	2e	.	.	2g
2G	[2d	.	2g	2b
=150	=150	=150	=150	=150
2E	4d]	0r	2g	1cc
.	4c	.	.	.
2F	1c	.	2a	.
1D	.	.	1f	1dd
.	2B	.	.	.
=151	=151	=151	=151	=151
1C	0c	2r	2e	1ee
.	.	2.g	2e	.
2r	.	.	2e	2.gg
.	.	4f	.	.
[2c	.	4e	4c	.
.	.	4d	4d	4ff
=152	=152	=152	=152	=152
2c]	0r	2c	4e	2ee
.	.	.	4f	.
2B-	.	2d	1g	2dd
1A	.	2e	.	1cc
.	.	2c	2f#	.
=153	=153	=153	=153	=153
0G	1r	4d	1g	2b
.	.	4c	.	.
.	.	4B	.	2.dd
.	.	4A	.	.
.	2r	1B	2.dd	.
.	.	.	.	4cc
.	[2g	.	.	4b
.	.	.	4cc	4a
=154	=154	=154	=154	=154
0r	2g]	1r	2b	2g
.	2f	.	2a	2a
.	2e	2r	2g	2b
.	2e	[2g	2g	2cc
=155	=155	=155	=155	=155
0r	1d	2g]	1a	1dd
.	.	2f	.	.
.	2c	2e	1cc	2.gg
.	4c	2e	.	.
.	4d	.	.	4ff
=156	=156	=156	=156	=156
0r	4e	2c	2.cc	1ee
.	4f	.	.	.
.	4g	2c	.	.
.	4e	.	4b	.
.	2f	2d	2a	2dd
.	[2g	2e	2g	2cc
=157	=157	=157	=157	=157
1r	2g]	1d	1a	1dd
.	2f#	.	.	.
2r	2g	2G	2g	2b
2G	2d	2g	2b	2dd
=158	=158	=158	=158	=158
1C	1c	1g	1cc	1ee
1G	1d	1g	1b	1dd
*-	*-	*-	*-	*-
!!!CDT: 1525/^1526/-1594/2/2
!!!OCY: Italia
!!!AGN: Mass (Parody)
!!!AST: renaissance, vocal
!!!ASW: Motet 1572 (Palestrina)
!!!PWK: Masses, Book 12
!!!RNB: Cadence finals: G,D
!!!YOR: Le Opere Complete, v. 29, p. 54
!!!YOO: Rome, Italy: Fratelli Scalera
!!!END: 1992//
!!!EED: John Miller
!!!YEC: Copyright 2000, John Miller
!!!YEN: United States of America
!!!YEM: Rights to all derivative electronic formats reserved.
!!!YEM: Refer to licensing agreement for further details.
!!!YEM: This file must be accompanied by the licensing agreement.
!!!YEM: A copy of the licensing agreement may be found at http://www.music-cog.ohio-state.edu/HumdrumDatabases/Palestrina/license.txt
!!!EMD: converted to Humdrum by Bret Aarden
